X:1
T:Mortuus effertur
T:Daniel Friderici
T:Source : Bicinia sacra---Rostock---J.Richelius---1642. Editor : André Vierendeels (12/07/17).
T:Notes : Original clefs : C1, C1 Editorial accidentals above the staff m 2 in S 1 : first "F" notated as quarter in original print
T:Mortuus effertur
T:©
T:©
T:©
C:Daniel Friderici
Z:©
%%score [ 1 2 ]
L:1/8
Q:1/4=120
M:2/2
K:C
V:1 treble nm="Soprano 1" snm="S 1"
V:2 treble nm="Soprano 2" snm="S 2"
V:1
 E6 DE | F4 F4 | E4 E4 | A8 | ^G8 | A6 A2 | B8 | c6 c2 | B4 E4 | F8 | E8 | A6 A2 | ^G8 | z4 c4 | %14
w: Mor- * *|* tu-|us ef-|fer-|tur|Ju- ve-|nis,|mor- tu-|us ef-|fer-|tur|Ju- ve-|nis,|vi-|
 BABc BABc | B4 B2 A2 | ^G4 A2 A2 | dcde dcde | d4 d2 c2 | B2 A2 B4 | A8 :| ^G2 GG G2 G2 | A4 ^G4 | %23
w: vus- * * * * * * *|* que re-|fer- tur, vi-|vus- * * * * * * *|* que re-|fer- * *|tur:|Qui be- ne fu- nus|a- git,|
 B2 BB B2 B2 | c4 B4 | z2 G3 A B2 | c2 G2 A2 E2 | z2 G3 A B2 | c2 G2 A2 E2 | EFGA BABc | %30
w: qui be- ne fu- nus|a- git,|no- bi- le|fae- nus a- git,|no- bi- le|fae- nus a- git,|a- * * * * * * *|
 dcde dedc | BA A3 ^G/^F/ G2 | A8 |] %33
w: ||git.|
V:2
 z8 | z8 | z8 | z8 | E6 DE | F4 F4 | E4 E4 | A8 | ^G8 | A6 A2 | B8 | z2 c4 c2 | B8 | z4 e4 | %14
w: ||||Mor- * *|* tu-|us ef-|fer-|tur|Ju- ve-|nis,|Ju- ve-|nis,|vi-|
 dcde dcde | d4 d2 c2 | B4 A2 c2 | BABc BABc | B4 B2 A2 | ^G2 A3 G/^F/ G2 | A8 :| B2 BB B2 B2 | %22
w: vus- * * * * * * *|* que re-|fer- tur, vi-|vus- * * * * * * *|* que re-|fer- * * * *|trur:|Qui be- ne fu- nus|
 c4 B4 | ^G2 GG G2 G2 | A4 ^G2 G2- | GA B2 c2 ^G2 | A2 E2 z2 G2- | GA B2 c2 G2 | A2 E2 z2 e2- | %29
w: a- git,|qui be- ne fu- nus|a- git, no-|* bi- le fae- nus|a- git, no-|* bi- le fae- nus|a- git, no-|
 ed e2 dcde | dedc BABA | ^G2 A2 B4 | A8 |] %33
w: * bi- le fae- * * *||* nus a-|git.|

